X:24
T:Sweeney's Polka
M:2/4
L:1/8
R:polka
K:Gmaj
|: d e/d/ Bd | Gd Bd | e/f/g/e/ dB | AG E2 |
d e/d/ Bd | Gd Bd | e/f/g/e/ dB | AG G2 :|
|: Bd g>e | dB A G/A/ | Bd e/f/g/e/ |dB A2|
Bd g>e | dB AG | d e/d/ BA | AG G2 :|
